X: 72
T:Loliña
M:6/8
L:1/8
C:Rosendo Mato Hermida
S:Rep: Ricardo Portela
R:Muiñeira
A:Galicia
K:C
GAB | cBA GAB | "~"A2G GFE |   !
DEF DEF  | "~"F2E GAB | cBA GAB |  !
A2G GFE | DEF
 GAG | E3 :| 
GFE | !
 GFE GFE | G3 GFE | DEF DEF | F2E GFE | GFE GFE| G3 GFE | AGF DFD |
 E3 |

